X: 5
T:Israeli Reel
M:4/4
L:1/8
Q:120
C:Matthew Richards
K:Bmin
(3BBB cdBA FA|(3BBB cded c_B|(3BBB cdBA Bd|
|f/2/e/2/f/2/d/2 f/2/e/2/f/2/d/2 f/2/g/2/f/2/e/2 f_B:|
|:(3ggg ggfd Bf|(3eee dcdB Bf|1(3ggg agf=f ^fd|eedc B2 B2:|
|2 (3ggg _bgfd Bf|ee f/2/e/2/d/2/c/2 dBBA|:BBBc ddde|fffg f2 fg|
|_b2 g2 f2 e2|cccd B2 F2|BBBc AAAA|BBde fgfd|f2 fg e2 ef|
|d2 c2 B2 A2|BBBc ddee fagf|e2 e2 dddd|eeee dcB_B|
|B2 B2 :|: ecec dBdB| cdcA B2 Bd|ecgc fdBF||cde_B=Bd =B2|A2 BB BB
B2|
|d2 BB BB B2|f2 BB B2 c2|_B2 G2 FF c2|d2 dd e2 ee|ffff g2 gg|
|_b2 g2 f2 e2|c2 cd c2 A2|B2 BB c2 cc|d2 e2 f2 b2|afge fdec|
|def_b =b2 b2:|
